X:86
T:86 Waterloo
C:Welch MS
I:abc2nwc
M:6/8
L:1/8
K:D
DFE D2B|A2G F2E|D2D F2F|AGF E2F|DFE D2B|A2G F2A|G2F EDC|D3D3:|
DFE D2A|A2G A2D|DFE D2B|B2^A B2z|DFE D2C|B,2B, B2B|AGF E2F|D3D3:|


